.icons/oomox-ad/22x22/places/folder-orange-nextcloud.svg

<svg xmlns="http://www.w3.org/2000/svg" width="22" height="22" version="1">
 <rect style="opacity:0.2" width="20" height="12" x="1" y="8.5" rx="1" ry="1"/>
 <path style="fill:#dd772f" d="m1 16c0 0.554 0.446 1 1 1h18c0.554 0 1-0.446 1-1v-11c0-0.554-0.446-1-1-1h-10v-1c0-0.554-0.446-1-1-1h-7c-0.554 0-1 0.446-1 1"/>
 <rect style="opacity:0.2" width="20" height="12" x="1" y="7.5" rx="1" ry="1"/>
 <rect style="fill:#e4e4e4" width="16" height="8" x="3" y="6" rx="1" ry="1"/>
 <rect style="fill:#ee923a" width="20" height="12" x="1" y="8" rx="1" ry="1"/>
 <path style="fill:#ffffff;opacity:0.1" d="m2 2c-0.554 0-1 0.446-1 1v0.5c0-0.554 0.446-1 1-1h7c0.554 0 1 0.446 1 1v-0.5c0-0.554-0.446-1-1-1zm8 2v0.5h10c0.554 0 1 0.446 1 1v-0.5c0-0.554-0.446-1-1-1z"/>
 <path style="fill:#533314" d="M 16,12 A 2,2 0 0 0 14,14 2,2 0 0 0 16,16 2,2 0 0 0 18,14 2,2 0 0 0 16,12 Z M 16,13 A 1,1 0 0 1 17,14 1,1 0 0 1 16,15 1,1 0 0 1 15,14 1,1 0 0 1 16,13 Z M 6,12 A 2,2 0 0 0 4,14 2,2 0 0 0 6,16 2,2 0 0 0 8,14 2,2 0 0 0 6,12 Z M 6,13 A 1,1 0 0 1 7,14 1,1 0 0 1 6,15 1,1 0 0 1 5,14 1,1 0 0 1 6,13 Z M 11,11 A 3,3 0 0 0 8,14 3,3 0 0 0 11,17 3,3 0 0 0 14,14 3,3 0 0 0 11,11 Z M 11,12 A 2,2 0 0 1 13,14 2,2 0 0 1 11,16 2,2 0 0 1 9,14 2,2 0 0 1 11,12 Z"/>
</svg>

<svg xmlns="http://www.w3.org/2000/svg" width="22" height="22" version="1">
 <rect style="opacity:0.2" width="20" height="12" x="1" y="8.5" rx="1" ry="1"/>
 <path style="fill:#dd772f" d="M 1,16 C 1,16.554 1.446,17 2,17 H 20 C 20.554,17 21,16.554 21,16 V 5 C 21,4.446 20.554,4 20,4 H 11 C 9.5,4 9,2 7.5,2 H 2 C 1.446,2 1,2.446 1,3"/>
 <rect style="opacity:0.2" width="20" height="12" x="1" y="7.5" rx="1" ry="1"/>
 <rect style="fill:#e4e4e4" width="16" height="8" x="3" y="6" rx="1" ry="1"/>
 <rect style="fill:#ee923a" width="20" height="12" x="1" y="8" rx="1" ry="1"/>
 <path style="opacity:0.1;fill:#ffffff" d="M 2,2 C 1.446,2 1,2.446 1,3 V 3.5 C 1,2.946 1.446,2.5 2,2.5 H 7.5 C 9,2.5 9.5,4.5 11,4.5 H 20 C 20.554,4.5 21,4.946 21,5.5 V 5 C 21,4.446 20.554,4 20,4 H 11 C 9.5,4 9,2 7.5,2 Z"/>
 <path style="fill:#533314" d="M 16,12 A 2,2 0 0 0 14,14 2,2 0 0 0 16,16 2,2 0 0 0 18,14 2,2 0 0 0 16,12 Z M 16,13 A 1,1 0 0 1 17,14 1,1 0 0 1 16,15 1,1 0 0 1 15,14 1,1 0 0 1 16,13 Z M 6,12 A 2,2 0 0 0 4,14 2,2 0 0 0 6,16 2,2 0 0 0 8,14 2,2 0 0 0 6,12 Z M 6,13 A 1,1 0 0 1 7,14 1,1 0 0 1 6,15 1,1 0 0 1 5,14 1,1 0 0 1 6,13 Z M 11,11 A 3,3 0 0 0 8,14 3,3 0 0 0 11,17 3,3 0 0 0 14,14 3,3 0 0 0 11,11 Z M 11,12 A 2,2 0 0 1 13,14 2,2 0 0 1 11,16 2,2 0 0 1 9,14 2,2 0 0 1 11,12 Z"/>
</svg>
